ghost/admin/public/assets/icons/summer.svg

<svg width="174" height="120" viewBox="0 0 174 120" xmlns="http://www.w3.org/2000/svg">
  <title>summer</title>
  <g fill="none" fill-rule="evenodd">
    <path d="M.5.5h173v119H.5z"/>
    <path d="M141.406 39.442a58.61 58.61 0 0 1 3.626 20.359c0 32.453-26.347 58.8-58.8 58.8-32.453 0-58.801-26.347-58.801-58.8 0-5.592.782-11.003 2.244-16.13m13.228-23.605C53.655 8.35 69.092 1 86.232 1A58.52 58.52 0 0 1 111.3 6.604" stroke="#9BAEB8"/>
    <path d="M28.25 67.39c1.17-.677 1.966-1.134 3.137-1.134 4.495 0 8.99 6.742 13.485 6.742.256 0 .512-.022.768-.063m3.392-1.466c3.108-1.989 6.217-5.213 9.325-5.213 4.495 0 8.99 6.742 13.485 6.742 4.496 0 8.99-6.742 13.486-6.742 4.495 0 8.99 6.742 13.485 6.742 4.495 0 8.99-6.742 13.485-6.742 4.495 0 8.99 6.742 13.485 6.742 4.496 0 8.99-6.742 13.485-6.742 1.747 0 3.216 1.018 4.963 2.263M29.134 73.677c.75-.314 1.502-.502 2.253-.502 4.495 0 8.99 6.742 13.485 6.742.643 0 1.287-.138 1.93-.375m3.328-1.9c2.742-1.957 5.485-4.467 8.227-4.467 4.495 0 8.99 6.742 13.485 6.742 4.496 0 8.99-6.742 13.486-6.742 4.495 0 8.99 6.742 13.485 6.742 4.495 0 8.99-6.742 13.485-6.742 4.495 0 8.99 6.742 13.485 6.742 4.496 0 8.99-6.742 13.485-6.742 1.292 0 2.584.557 3.876 1.35M31.387 80.934c4.495 0 8.99 6.743 13.485 6.743 1.088 0 2.176-.395 3.264-.994m3.236-2.196c2.329-1.744 4.657-3.553 6.985-3.553 4.495 0 8.99 6.743 13.485 6.743 4.496 0 8.99-6.743 13.486-6.743 4.495 0 8.99 6.743 13.485 6.743 4.495 0 8.99-6.743 13.485-6.743 4.495 0 8.99 6.743 13.485 6.743 4.496 0 8.99-6.743 13.485-6.743.599 0 1.197.12 1.796.327" opacity=".6" stroke="#9BAEB8" stroke-linecap="round" stroke-linejoin="round"/>
    <path d="M37.5 91.958H49m3.648 0h82.802" stroke="#9BAEB8" stroke-linecap="round" stroke-linejoin="round"/>
    <path d="M62.934 98.943h2.915m-2.915 12.633h2.915m-9.658-5.891h2.915m18.072-6.643h2.915m-2.915 12.633h2.915m-9.658-5.891h2.915m18.072-6.644h2.914m-2.914 12.634h2.914m-9.657-5.891h2.915m18.071-6.643h2.915m-2.915 12.633h2.915m-9.657-5.891h2.915m18.072-6.644h2.915m-9.659 6.742h2.916" opacity=".6" stroke="#9BAEB8" stroke-linecap="round" stroke-linejoin="round"/>
    <path d="M124.204 2.259c12.425 0 22.513 10.088 22.513 22.513 0 12.426-10.088 22.514-22.513 22.514-12.426 0-22.514-10.088-22.514-22.514 0-12.425 10.088-22.513 22.514-22.513zM40.658 45.534l9.62 52.937 3.57.033-9.607-53.532" stroke="#9BAEB8" stroke-width="1.5" stroke-linecap="round" stroke-linejoin="round"/>
    <path d="M1 54.092s4.315-6.154 9.489-7.083c5.173-.929 11.36 3.341 11.36 3.341s4.234-6.14 9.488-7.083c5.254-.942 11.36 3.341 11.36 3.341s4.276-6.147 9.488-7.082c5.213-.936 11.36 3.34 11.36 3.34s4.885-6.256 9.488-7.082c4.604-.826 11.36 3.341 11.36 3.341S65.225 15.665 38.02 20.548C10.813 25.431 1 54.092 1 54.092z" stroke="#9BAEB8" stroke-width="1.5" stroke-linecap="round" stroke-linejoin="round"/>
    <path d="M21.138 49.682s.187-10.218 3.941-17.137c3.754-6.918 8.836-8.89 12.421-11.407" stroke="#9BAEB8" stroke-width="1.5" stroke-linecap="round" stroke-linejoin="round"/>
    <path d="M63.025 42.198s-3.728-9.515-9.654-14.696c-5.926-5.182-14.612-6.364-15.871-6.364m1.007 0 4.027 24.802" stroke="#9BAEB8" stroke-width="1.5" stroke-linecap="round" stroke-linejoin="round"/>
  </g>
</svg>

<svg width="174" height="120" viewBox="0 0 174 120" xmlns="http://www.w3.org/2000/svg"><title>Group</title><g fill="none" fill-rule="evenodd"><path d="M.5.5h173v119H.5z"/><path d="M141.406 39.442c2.345 6.345 3.626 13.203 3.626 20.359 0 32.453-26.347 58.8-58.8 58.8-32.453 0-58.801-26.347-58.801-58.8 0-5.592.782-11.003 2.244-16.13m13.228-23.605C53.655 8.35 69.092 1 86.232 1c8.964 0 17.462 2.01 25.068 5.604" stroke="#9BAEB8"/><g opacity=".6" stroke="#9BAEB8" stroke-linecap="round" stroke-linejoin="round"><path d="M28.25 67.39c1.17-.677 1.966-1.134 3.137-1.134 4.495 0 8.99 6.742 13.485 6.742.256 0 .512-.022.768-.063m3.392-1.466c3.108-1.989 6.217-5.213 9.325-5.213 4.495 0 8.99 6.742 13.485 6.742 4.496 0 8.99-6.742 13.486-6.742 4.495 0 8.99 6.742 13.485 6.742 4.495 0 8.99-6.742 13.485-6.742 4.495 0 8.99 6.742 13.485 6.742 4.496 0 8.99-6.742 13.485-6.742 1.747 0 3.216 1.018 4.963 2.263M29.134 73.677c.75-.314 1.502-.502 2.253-.502 4.495 0 8.99 6.742 13.485 6.742.643 0 1.287-.138 1.93-.375m3.328-1.9c2.742-1.957 5.485-4.467 8.227-4.467 4.495 0 8.99 6.742 13.485 6.742 4.496 0 8.99-6.742 13.486-6.742 4.495 0 8.99 6.742 13.485 6.742 4.495 0 8.99-6.742 13.485-6.742 4.495 0 8.99 6.742 13.485 6.742 4.496 0 8.99-6.742 13.485-6.742 1.292 0 2.584.557 3.876 1.35M31.387 80.934c4.495 0 8.99 6.743 13.485 6.743 1.088 0 2.176-.395 3.264-.994m3.236-2.196c2.329-1.744 4.657-3.553 6.985-3.553 4.495 0 8.99 6.743 13.485 6.743 4.496 0 8.99-6.743 13.486-6.743 4.495 0 8.99 6.743 13.485 6.743 4.495 0 8.99-6.743 13.485-6.743 4.495 0 8.99 6.743 13.485 6.743 4.496 0 8.99-6.743 13.485-6.743.599 0 1.197.12 1.796.327"/></g><path d="M37.5 91.958H49m3.648 0h82.802" stroke="#9BAEB8" stroke-linecap="round" stroke-linejoin="round"/><g opacity=".6" stroke="#9BAEB8" stroke-linecap="round" stroke-linejoin="round"><path d="M62.934 98.943h2.915M62.934 111.576h2.915M56.191 105.685h2.915M77.178 99.042h2.915M77.178 111.675h2.915M70.435 105.784h2.915M91.422 99.14h2.914M91.422 111.774h2.914M84.679 105.883h2.915M105.665 99.24h2.915M105.665 111.873h2.915M98.923 105.982h2.915M119.91 99.338h2.915M113.166 106.08h2.916"/></g><path d="M124.204 2.259c12.425 0 22.513 10.088 22.513 22.513 0 12.426-10.088 22.514-22.513 22.514-12.426 0-22.514-10.088-22.514-22.514 0-12.425 10.088-22.513 22.514-22.513zM40.658 45.534l9.62 52.937 3.57.033-9.607-53.532" stroke="#9BAEB8" stroke-width="1.5" stroke-linecap="round" stroke-linejoin="round"/><path d="M1 54.092s4.315-6.154 9.489-7.083c5.173-.929 11.36 3.341 11.36 3.341s4.234-6.14 9.488-7.083c5.254-.942 11.36 3.341 11.36 3.341s4.276-6.147 9.488-7.082c5.213-.936 11.36 3.34 11.36 3.34s4.885-6.256 9.488-7.082c4.604-.826 11.36 3.341 11.36 3.341S65.225 15.665 38.02 20.548C10.813 25.431 1 54.092 1 54.092z" stroke="#9BAEB8" stroke-width="1.5" stroke-linecap="round" stroke-linejoin="round"/><path d="M21.138 49.682s.187-10.218 3.941-17.137c3.754-6.918 8.836-8.89 12.421-11.407" stroke="#9BAEB8" stroke-width="1.5" stroke-linecap="round" stroke-linejoin="round"/><path d="M63.025 42.198s-3.728-9.515-9.654-14.696c-5.926-5.182-14.612-6.364-15.871-6.364M38.507 21.138l4.027 24.802" stroke="#9BAEB8" stroke-width="1.5" stroke-linecap="round" stroke-linejoin="round"/></g></svg>
